archdroid-icon-theme/Archdroid-Cyan/apps/scalable/system-file-manager-xfce-color.svg

<svg fill="#00BCD4" height="48" viewBox="0 0 48 48" width="48" xmlns="http://www.w3.org/2000/svg"><path d="m20 5-4 4v4h-8c-2.21 0-3.980469 1.79-3.980469 4l-.019531 22c0 2.21 1.79 4 4 4h32c2.21 0 4-1.79 4-4v-22c0-2.21-1.79-4-4-4h-8v-4l-4-4zm0 4h8v4h-8z" fill="#00BCD4"/><g fill-rule="evenodd"><path d="m6.14066 18.746715c.109157-.018261 2.830987 1.418435 4.660486 1.914918 3.262341.833693 6.240223 3.34289 7.679556 4.784252.106723.12336 1.236236-.845664 2.418299-.775869 1.614634.097795 6.610708 1.502637 7.278231.545989.404775-.561612.375761-1.250642.880765-1.532868.271879-.076085-1.010617-2.421749.352428-3.17327.971865-.485729 1.795413 2.233665 2.044974 2.538413.111795.136345.704855.16962.634654-.141012-.076085-.337414-1.035371-2.94684.141012-3.384686 1.910657-.756594 1.572027 3.338832 1.621736 3.455293.105708.247937 6.654331.439064 7.051395 3.384686.229677 1.621127-5.246446 3.716418-5.782087 4.089744-.535439.373326-.490802.970444-.282023 1.339915.240024.400717 1.835384 1.753211 1.621939 2.397401-.146693.372108-3.124169-.991748-3.314281-.705058-.433586.547612 2.167522 1.918367 1.269308 2.891044-.35608.232923-4.452925-1.71527-4.442578-1.692343-.109969.041796-5.788986 1.0374-10.154058-.282226-.153794-.043419-2.801567 2.557688-3.102663 2.468211-.411673-.150954.606857-2.262274.493642-2.679628-.18504-.232517-1.876977.944068-1.974366.352631-.116461-.777289 1.484782-1.670836 1.41032-2.185985-.41289-2.92655.184431-4.63553 1.198701-6.064111.338225-.525903-3.975109-3.783171-7.097858-5.06871-3.122546-1.285539-4.793179-2.375083-4.607531-2.476733z" fill="#020202" stroke="#000002" stroke-width=".202894pt"/><path d="m34.203475 28.531789c-.034289-.119708 2.131001-1.429392 2.444473-1.128296.56425.204518-2.424589 1.280264-2.444473 1.128296z" fill="#00BCD4" stroke="#000" stroke-width=".121737pt"/><path d="m35.237629 29.72278c-.190721-.115244 1.296293-1.84918 1.661097-1.661097.532598.529149-1.686053 1.702285-1.661097 1.661097z" fill="#00BCD4" stroke="#000" stroke-width=".121737pt"/><path d="m41.098236 21.699723c-.180779-.149533-1.598403 2.087176-1.284931 2.319287.188489.141012 1.365683-2.239549 1.284931-2.319287z" fill="#020202" stroke="#000" stroke-width=".121737pt"/><ellipse cx="34.686535" cy="24.901077" fill="#00BCD4" rx=".565475" ry=".643824" stroke="#000" stroke-width=".113158pt"/><path d="m39.468567 21.386326c-.089476-.103882-.56425 2.306505-.344718 2.413227.188489.141012.516772-2.287838.344718-2.413227z" fill="#020202" stroke="#000" stroke-width=".121737pt"/><path d="m33.41728 24.648389c-.562221.39747.308603 2.646759 1.740835 1.333423-1.125253.033072-1.500608-.296429-1.740835-1.333423z" fill="#00BCD4" stroke="#000" stroke-width=".121737pt"/></g></svg>

<svg fill="#00BCD4" height="48" version="1.1" viewBox="0 0 48 48" width="48" xmlns="http://www.w3.org/2000/svg"><path d="M20 5L16 9 16 13 8 13C5.79 13 4.019531 14.79 4.019531 17L4 39C4 41.21 5.79 43 8 43L40 43C42.21 43 44 41.21 44 39L44 17C44 14.79 42.21 13 40 13L32 13 32 9 28 5 20 5zM20 9L28 9 28 13 20 13 20 9z"/><path d="m6.14066 18.746715c.109157-.018261 2.830987 1.418435 4.660486 1.914918 3.262341.833693 6.240223 3.34289 7.679556 4.784252.106723.12336 1.236236-.845664 2.418299-.775869 1.614634.097795 6.610708 1.502637 7.278231.545989.404775-.561612.375761-1.250642.880765-1.532868.271879-.076085-1.010617-2.421749.352428-3.17327.971865-.485729 1.795413 2.233665 2.044974 2.538413.111795.136345.704855.16962.634654-.141012-.076085-.337414-1.035371-2.94684.141012-3.384686 1.910657-.756594 1.572027 3.338832 1.621736 3.455293.105708.247937 6.654331.439064 7.051395 3.384686.229677 1.621127-5.246446 3.716418-5.782087 4.089744-.535439.373326-.490802.970444-.282023 1.339915.240024.400717 1.835384 1.753211 1.621939 2.397401-.146693.372108-3.124169-.991748-3.314281-.705058-.433586.547612 2.167522 1.918367 1.269308 2.891044-.35608.232923-4.452925-1.71527-4.442578-1.692343-.109969.041796-5.788986 1.0374-10.154058-.282226-.153794-.043419-2.801567 2.557688-3.102663 2.468211-.411673-.150954.606857-2.262274.493642-2.679628-.18504-.232517-1.876977.944068-1.974366.35263099999999999-.116461-.777289 1.484782-1.670836 1.41032-2.185985-.41289-2.92655.184431-4.63553 1.198701-6.064111.338225-.525903-3.975109-3.783171-7.0978579999999999-5.06871-3.122546-1.285539-4.793179-2.375083-4.607531-2.476733z" fill="#020202" fill-rule="evenodd" stroke="#000002" stroke-width=".202894pt"/><path d="m34.203475 28.531789c-.034289-.119708 2.131001-1.429392 2.444473-1.128296.56425.204518-2.424589 1.280264-2.444473 1.128296z" fill="#00BCD4" fill-rule="evenodd" stroke="#000" stroke-width=".121737pt"/><path d="m35.237629 29.72278c-.190721-.115244 1.296293-1.84918 1.661097-1.661097.532598.529149-1.686053 1.702285-1.661097 1.661097z" fill="#00BCD4" fill-rule="evenodd" stroke="#000" stroke-width=".121737pt"/><path d="m41.098236 21.699723c-.180779-.149533-1.598403 2.087176-1.284931 2.319287.188489.141012 1.365683-2.239549 1.284931-2.319287z" fill="#020202" fill-rule="evenodd" stroke="#000" stroke-width=".121737pt"/><ellipse cx="34.686535" cy="24.901077" fill="#00BCD4" fill-rule="evenodd" rx=".565475" ry=".643824" stroke="#000" stroke-width=".113158pt"/><path d="m39.468567 21.386326c-.089476-.103882-.56425 2.306505-.344718 2.413227.188489.141012.516772-2.287838.344718-2.413227z" fill="#020202" fill-rule="evenodd" stroke="#000" stroke-width=".121737pt"/><path d="m33.41728 24.648389c-.562221.39747.308603 2.646759 1.740835 1.333423-1.125253.033072-1.500608-.296429-1.740835-1.333423z" fill="#00BCD4" fill-rule="evenodd" stroke="#000" stroke-width=".121737pt"/></svg>
